public/svgs/icons/fun.svg

<svg fill="none" height="91" viewBox="0 0 85 91" width="85" xmlns="http://www.w3.org/2000/svg"><path d="m47.7301 30.87c-.1107.0019-.2203-.0221-.32-.07-.0904-.0408-.1716-.0994-.2389-.1722s-.1193-.1583-.1528-.2516c-.0336-.0933-.0481-.1924-.0427-.2913.0055-.099.0308-.1959.0744-.2849.4017-.8491 1.0252-1.5741 1.8045-2.0985.7794-.5244 1.6859-.8287 2.6238-.8809s1.8725.1496 2.7053.5842 1.5328 1.0859 2.0264 1.8852c.0651.0832.1119.1792.1373.2817.0254.1026.0289.2093.0101.3133-.0187.1039-.0591.2028-.1187.29-.0595.0873-.1369.161-.2269.2162-.09.0553-.1907.091-.2954.1046-.1048.0137-.2112.0051-.3124-.0252-.1012-.0304-.1949-.0817-.2748-.1508-.08-.069-.1445-.1541-.1892-.2498-.3521-.5699-.8516-1.0342-1.4456-1.3437-.5941-.3096-1.2607-.453-1.9296-.4151-.6688.0379-1.3149.2557-1.8702.6304s-.9992.8924-1.2846 1.4984c-.0618.1281-.1583.2363-.2785.3123s-.2593.1168-.4015.1177z" fill="#bad8db"/><path d="m74.07 30.87c-.1422-.0009-.2814-.0417-.4016-.1177s-.2166-.1842-.2784-.3123c-.2879-.6034-.7327-1.1184-1.2878-1.491s-1.2002-.5891-1.8677-.6269-1.3329.1044-1.9265.4119c-.5937.3075-1.0938.7689-1.448 1.336-.0448.0957-.1092.1808-.1892.2498-.08.0691-.1736.1204-.2748.1508-.1012.0303-.2076.0389-.3124.0252-.1048-.0136-.2054-.0493-.2954-.1046-.0901-.0552-.1674-.1289-.2269-.2162-.0596-.0872-.1001-.1861-.1188-.29-.0187-.104-.0152-.2107.0102-.3133.0254-.1025.0722-.1985.1373-.2817.4935-.7993 1.1936-1.4506 2.0264-1.8852.8327-.4346 1.7674-.6364 2.7053-.5842s1.8443.3565 2.6237.8809 1.4028 1.2494 1.8046 2.0985c.0436.089.0689.1859.0743.2849.0055.0989-.009.198-.0426.2913s-.0855.1788-.1528.2516-.1486.1314-.2389.1722c-.0998.0479-.2093.0719-.32.07z" fill="#bad8db"/><path d="m81.0002 15.73h-40.17c-.9619.0026-1.8837.3859-2.5639 1.0661s-1.0635 1.602-1.0661 2.5639v27.14c.51.31 1 .64 1.5 1v-28.14c0-.5649.2244-1.1067.6239-1.5062.3994-.3994.9412-.6238 1.5061-.6238h40.17c.5649 0 1.1067.2244 1.5061.6238.3995.3995.6239.9413.6239 1.5062v40.12c0 .5649-.2244 1.1067-.6239 1.5061-.3994.3995-.9412.6239-1.5061.6239h-33c.1.5.19 1 .26 1.5h32.74c.9619-.0027 1.8837-.3859 2.5639-1.0661s1.0635-1.602 1.0661-2.5639v-40.12c-.0026-.9619-.3859-1.8837-1.0661-2.5639s-1.602-1.0635-2.5639-1.0661z" fill="#bad8db"/><path d="m60.8901 53.5499c-2.978-.0044-5.8724-.9847-8.2402-2.7908-2.3678-1.806-4.0783-4.3384-4.8698-7.2092-.0493-.188-.0551-.3848-.017-.5754.0382-.1906.1192-.37.237-.5246.1194-.1528.2708-.2776.4435-.3657.1728-.0881.3627-.1373.5565-.1443h23.75c.1942.0049.3848.0532.5578.1415.1731.0883.3242.2142.4422.3685.128.1532.2176.3348.2611.5296.0435.1949.0397.3973-.0111.5904-.7952 2.8671-2.5074 5.395-4.8748 7.1972s-5.2599 2.7796-8.2352 2.7828zm-11.59-10.11c.7533 2.4873 2.2869 4.6662 4.374 6.2148 2.0872 1.5486 4.6171 2.3846 7.216 2.3846 2.5988 0 5.1288-.836 7.2159-2.3846s3.6207-3.7275 4.3741-6.2148z" fill="#bad8db"/><g fill="#ed6a5e"><path d="m36.4 64.2999c1.0714 0 1.94-.8685 1.94-1.94 0-1.0714-.8686-1.94-1.94-1.94-1.0715 0-1.94.8686-1.94 1.94 0 1.0715.8685 1.94 1.94 1.94z"/><path d="m14.1392 64.2999c1.0715 0 1.94-.8685 1.94-1.94 0-1.0714-.8685-1.94-1.94-1.94-1.0714 0-1.94.8686-1.94 1.94 0 1.0715.8686 1.94 1.94 1.94z"/><path d="m25.3495 80.5699c-2.7192-.009-5.3795-.7926-7.6695-2.259-2.2899-1.4664-4.1146-3.5549-5.2605-6.021-.0835-.1816-.0915-.3891-.0221-.5766s.2105-.3398.3921-.4234c.1817-.0835.3891-.0915.5767-.0221.1875.0694.3398.2105.4233.3921 1.0174 2.2117 2.6477 4.0852 4.6974 5.3985 2.0498 1.3134 4.4332 2.0114 6.8676 2.0114 2.4345 0 4.8179-.698 6.8676-2.0114 2.0498-1.3133 3.68-3.1868 4.6974-5.3985.0866-.1788.2397-.3166.4266-.3838.187-.0673.3928-.0588.5734.0238.0903.041.1716.0994.2392.172s.1201.1578.1545.2508.05.1919.046.291c-.0041.0991-.0278.1964-.0697.2862-1.1479 2.4657-2.9748 4.5532-5.2666 6.0179s-4.9535 2.2459-7.6734 2.2521z"/><path d="m39.2597 74c-.1349.0004-.2674-.0356-.3836-.1043-.1162-.0686-.2117-.1673-.2764-.2857-.2512-.5381-.6289-1.0074-1.1008-1.3678-.4719-.3605-1.024-.6014-1.6092-.7022-.1974-.0178-.3797-.1129-.5071-.2647s-.1896-.3478-.1729-.5453c-.0004-.1011.0203-.2012.0607-.2939s.0996-.1761.1739-.2447c.0742-.0686.162-.1211.2576-.154.0956-.033.197-.0457.2978-.0374.8351.1227 1.6281.4461 2.3108.9425s1.2349 1.1509 1.6092 1.9075c.0872.1735.1047.3737.0489.5597-.0558.1859-.1806.3435-.3489.4403-.1058.079-.2295.1305-.36.15z"/><path d="m11.3101 74c-.1091-.0117-.2146-.0458-.31-.1-.1683-.0968-.2931-.2544-.3489-.4403-.0558-.186-.0383-.3862.0489-.5597.3591-.7627.8996-1.4259 1.5742-1.9314.6747-.5056 1.4629-.8381 2.2958-.9686.1873.0029.3668.0758.5031.2043.1363.1286.2195.3035.2333.4904s-.0428.3721-.1588.5193c-.1159.1472-.2827.2456-.4676.276-.5807.1138-1.1263.3633-1.5921.7283s-.8386.835-1.0879 1.3717c-.0653.1259-.1645.2311-.2865.3035-.1219.0725-.2617.1094-.4035.1065z"/><path d="m25.3596 42.49c-1.2829.0008-2.5637.1044-3.83.3099l1.76 1c-.0114.091-.0281.1811-.05.27.7-.06 1.41-.0999 2.12-.0999 4.4239-.002 8.7491 1.3078 12.4287 3.7637 3.6796 2.456 6.5484 5.9478 8.2436 10.0341 1.6953 4.0862 2.1409 8.5834 1.2805 12.9228-.8604 4.3395-2.9882 8.3264-6.1143 11.4567s-7.1101 5.2634-11.4484 6.1296c-4.3384.8663-8.8361.4267-12.9246-1.2631s-7.58421-4.5538-10.0451-8.2302c-2.4609-3.6763-3.77649-7.9997-3.78044-12.4236-.00557-2.5058.4137-4.9944 1.24-7.3601-.41.07-.81.15-1.23.21l-.08-1c-1.73313 4.7711-1.90021 9.9703-.47698 14.8428 1.42323 4.8724 4.36266 9.1643 8.39142 12.2522 4.0287 3.088 8.9369 4.8113 14.0118 4.9196s10.0522-1.404 14.209-4.3173 7.2766-7.0758 8.9065-11.8831c1.6298-4.8073 1.6847-10.0089.1567-14.8495s-4.5594-9.0681-8.6537-12.0685c-4.0944-3.0003-9.0387-4.6173-14.1147-4.6161z"/><path d="m2.32964 60.07-2.33000428-28.49c-.00644023-.1973.03801568-.3929.12908828-.568.091073-.1752.225696-.3239.390912-.432.17493-.1059.375514-.1618.580004-.1618.20448 0 .40506.0559.58.1618l22.39996 12.89v.48c-.08.05-1.63 13.13-20.95996 16.05zm-.77-27.89 2.13 26.16c15.57996-2.6 18.30996-11.89 18.76996-14.13z"/><path d="m2.53003 54.0801c-.12227-.001-.24247-.0316-.35041-.0891-.10793-.0574-.20041-.1401-.26959-.2409-.10127-.1605-.13698-.3538-.09976-.5399s.14454-.3508.29976-.4601c9.05997-6.2 9.99997-14.88 9.99997-15 .0227-.1972.1207-.378.2735-.5047.1527-.1267.3486-.1895.5465-.1753.1975.0202.3789.1179.5045.2716s.1851.3509.1655.5484c0 .38-1 9.44-10.65997 16-.11313.1051-.25668.1717-.41.19z"/></g><path d="m66.6599 51.8001c-.1806.0065-.3566-.0581-.49-.18-1.5089-1.2908-3.4293-2.0001-5.415-2.0001s-3.9061.7093-5.415 2.0001c-.0742.0659-.1608.1161-.2548.1478-.0939.0317-.1933.0442-.2922.0367-.0988-.0075-.1952-.0347-.2834-.0801-.0881-.0455-.1662-.1082-.2296-.1844-.1279-.152-.1911-.3482-.1762-.5463.015-.1981.1069-.3825.2562-.5137 1.7806-1.5232 4.0467-2.3602 6.39-2.3602 2.3432 0 4.6094.837 6.39 2.3602.0757.0635.1382.1414.1837.2292.0456.0877.0734.1836.0817.2821.0084.0985-.0028.1977-.0329.2919s-.0786.1814-.1425.2568c-.0711.0814-.1587.1467-.257.1915s-.205.0682-.313.0685z" fill="#bad8db"/><path d="m60.8701 8c-.1989 0-.3897-.07902-.5303-.21967-.1407-.14065-.2197-.33142-.2197-.53033v-6.5c0-.198912.079-.389678.2197-.53033.1406-.1406524.3314-.21967.5303-.21967s.3897.0790176.5303.21967c.1407.140652.2197.331418.2197.53033v6.5c-.0026.19811-.0824.38737-.2225.52747-.1401.14009-.3294.21994-.5275.22253z" fill="#bad8db"/><path d="m67.07 9.33996c-.0988.00223-.197-.01618-.2882-.05406-.0913-.03789-.1737-.0944-.2418-.16594-.0708-.06894-.127-.15136-.1654-.24238-.0384-.09103-.0582-.18882-.0582-.28762 0-.09879.0198-.19658.0582-.28761.0384-.09102.0946-.17344.1654-.24238l4.22-4.22001c.1422-.13248.3302-.2046.5245-.20117s.3797.08214.5171.21955c.1374.13742.2161.3228.2195.5171.0035.1943-.0686.38235-.2011.52452l-4.22 4.22c-.0693.07012-.1518.12569-.2428.16347s-.1887.057-.2872.05653z" fill="#bad8db"/><path d="m54.8398 9.33991c-.0987.00103-.1965-.01793-.2876-.05574-.091-.03781-.1735-.09369-.2424-.16426l-4.11-4.12c-.123-.13751-.191-.31552-.191-.5s.068-.36249.191-.5c.1435-.1387.3354-.21622.535-.21622s.3914.07752.535.21622l4.1 4.1c.1404.14063.2193.33125.2193.53s-.0789.38937-.2193.53c-.1463.12708-.3366.19171-.53.18z" fill="#bad8db"/></svg>

<svg width="85" height="91" viewBox="0 0 85 91" fill="none" xmlns="http://www.w3.org/2000/svg">
<path d="M47.7301 30.87C47.6194 30.8719 47.5098 30.8479 47.4101 30.8C47.3197 30.7592 47.2385 30.7006 47.1712 30.6278C47.1039 30.555 47.0519 30.4695 47.0184 30.3762C46.9848 30.2829 46.9703 30.1838 46.9757 30.0849C46.9812 29.9859 47.0065 29.889 47.0501 29.8C47.4518 28.9509 48.0753 28.2259 48.8546 27.7015C49.634 27.1771 50.5405 26.8728 51.4784 26.8206C52.4163 26.7684 53.3509 26.9702 54.1837 27.4048C55.0165 27.8394 55.7165 28.4907 56.2101 29.29C56.2752 29.3732 56.322 29.4692 56.3474 29.5717C56.3728 29.6743 56.3763 29.781 56.3575 29.885C56.3388 29.9889 56.2984 30.0878 56.2388 30.175C56.1793 30.2623 56.1019 30.336 56.0119 30.3912C55.9219 30.4465 55.8212 30.4822 55.7165 30.4958C55.6117 30.5095 55.5053 30.5009 55.4041 30.4706C55.3029 30.4402 55.2092 30.3889 55.1293 30.3198C55.0493 30.2508 54.9848 30.1657 54.9401 30.07C54.588 29.5001 54.0885 29.0358 53.4945 28.7263C52.9004 28.4167 52.2338 28.2733 51.5649 28.3112C50.8961 28.3491 50.25 28.5669 49.6947 28.9416C49.1394 29.3163 48.6955 29.834 48.4101 30.44C48.3483 30.5681 48.2518 30.6763 48.1316 30.7523C48.0114 30.8283 47.8723 30.8691 47.7301 30.87Z" fill="#BAD8DB"/>
<path d="M74.07 30.87C73.9278 30.8691 73.7886 30.8283 73.6684 30.7523C73.5482 30.6763 73.4518 30.5681 73.39 30.44C73.1021 29.8366 72.6573 29.3216 72.1022 28.949C71.5471 28.5764 70.902 28.3599 70.2345 28.3221C69.567 28.2843 68.9016 28.4265 68.308 28.734C67.7143 29.0415 67.2142 29.5029 66.86 30.07C66.8152 30.1657 66.7508 30.2508 66.6708 30.3198C66.5908 30.3889 66.4972 30.4402 66.396 30.4706C66.2948 30.5009 66.1884 30.5095 66.0836 30.4958C65.9788 30.4822 65.8782 30.4465 65.7882 30.3912C65.6981 30.336 65.6208 30.2623 65.5613 30.175C65.5017 30.0878 65.4612 29.9889 65.4425 29.885C65.4238 29.781 65.4273 29.6743 65.4527 29.5717C65.4781 29.4692 65.5249 29.3732 65.59 29.29C66.0835 28.4907 66.7836 27.8394 67.6164 27.4048C68.4491 26.9702 69.3838 26.7684 70.3217 26.8206C71.2596 26.8728 72.166 27.1771 72.9454 27.7015C73.7248 28.2259 74.3482 28.9509 74.75 29.8C74.7936 29.889 74.8189 29.9859 74.8243 30.0849C74.8298 30.1838 74.8153 30.2829 74.7817 30.3762C74.7481 30.4695 74.6962 30.555 74.6289 30.6278C74.5616 30.7006 74.4803 30.7592 74.39 30.8C74.2902 30.8479 74.1807 30.8719 74.07 30.87Z" fill="#BAD8DB"/>
<path d="M81.0002 15.73H40.8302C39.8683 15.7326 38.9465 16.1159 38.2663 16.7961C37.5861 17.4763 37.2028 18.3981 37.2002 19.36V46.5C37.7102 46.81 38.2002 47.14 38.7002 47.5V19.36C38.7002 18.7951 38.9246 18.2533 39.3241 17.8538C39.7235 17.4544 40.2653 17.23 40.8302 17.23H81.0002C81.5651 17.23 82.1069 17.4544 82.5063 17.8538C82.9058 18.2533 83.1302 18.7951 83.1302 19.36V59.48C83.1302 60.0449 82.9058 60.5867 82.5063 60.9861C82.1069 61.3856 81.5651 61.61 81.0002 61.61H48.0002C48.1002 62.11 48.1902 62.61 48.2602 63.11H81.0002C81.9621 63.1073 82.8839 62.7241 83.5641 62.0439C84.2443 61.3637 84.6276 60.4419 84.6302 59.48V19.36C84.6276 18.3981 84.2443 17.4763 83.5641 16.7961C82.8839 16.1159 81.9621 15.7326 81.0002 15.73Z" fill="#BAD8DB"/>
<path d="M60.8901 53.5499C57.9121 53.5455 55.0177 52.5652 52.6499 50.7591C50.2821 48.9531 48.5716 46.4207 47.7801 43.5499C47.7308 43.3619 47.725 43.1651 47.7631 42.9745C47.8013 42.7839 47.8823 42.6045 48.0001 42.4499C48.1195 42.2971 48.2709 42.1723 48.4436 42.0842C48.6164 41.9961 48.8063 41.9469 49.0001 41.9399H72.7501C72.9443 41.9448 73.1349 41.9931 73.3079 42.0814C73.481 42.1697 73.6321 42.2956 73.7501 42.4499C73.8781 42.6031 73.9677 42.7847 74.0112 42.9795C74.0547 43.1744 74.0509 43.3768 74.0001 43.5699C73.2049 46.437 71.4927 48.9649 69.1253 50.7671C66.7579 52.5693 63.8654 53.5467 60.8901 53.5499ZM49.3001 43.4399C50.0534 45.9272 51.587 48.1061 53.6741 49.6547C55.7613 51.2033 58.2912 52.0393 60.8901 52.0393C63.4889 52.0393 66.0189 51.2033 68.106 49.6547C70.1931 48.1061 71.7267 45.9272 72.4801 43.4399H49.3001Z" fill="#BAD8DB"/>
<path d="M36.4 64.2999C37.4714 64.2999 38.34 63.4314 38.34 62.3599C38.34 61.2885 37.4714 60.4199 36.4 60.4199C35.3285 60.4199 34.46 61.2885 34.46 62.3599C34.46 63.4314 35.3285 64.2999 36.4 64.2999Z" fill="#ED6A5E"/>
<path d="M14.1392 64.2999C15.2107 64.2999 16.0792 63.4314 16.0792 62.3599C16.0792 61.2885 15.2107 60.4199 14.1392 60.4199C13.0678 60.4199 12.1992 61.2885 12.1992 62.3599C12.1992 63.4314 13.0678 64.2999 14.1392 64.2999Z" fill="#ED6A5E"/>
<path d="M25.3495 80.5699C22.6303 80.5609 19.97 79.7773 17.68 78.3109C15.3901 76.8445 13.5654 74.756 12.4195 72.2899C12.336 72.1083 12.328 71.9008 12.3974 71.7133C12.4668 71.5258 12.6079 71.3735 12.7895 71.2899C12.9712 71.2064 13.1786 71.1984 13.3662 71.2678C13.5537 71.3372 13.706 71.4783 13.7895 71.6599C14.8069 73.8716 16.4372 75.7451 18.4869 77.0584C20.5367 78.3718 22.9201 79.0698 25.3545 79.0698C27.789 79.0698 30.1724 78.3718 32.2221 77.0584C34.2719 75.7451 35.9021 73.8716 36.9195 71.6599C37.0061 71.4811 37.1592 71.3433 37.3461 71.2761C37.5331 71.2088 37.7389 71.2173 37.9195 71.2999C38.0098 71.3409 38.0911 71.3993 38.1587 71.4719C38.2263 71.5445 38.2788 71.6297 38.3132 71.7227C38.3476 71.8157 38.3632 71.9146 38.3592 72.0137C38.3551 72.1128 38.3314 72.2101 38.2895 72.2999C37.1416 74.7656 35.3147 76.8531 33.0229 78.3178C30.7311 79.7825 28.0694 80.5637 25.3495 80.5699Z" fill="#ED6A5E"/>
<path d="M39.2597 74C39.1248 74.0004 38.9923 73.9644 38.8761 73.8957C38.7599 73.8271 38.6644 73.7284 38.5997 73.61C38.3485 73.0719 37.9708 72.6026 37.4989 72.2422C37.027 71.8817 36.4749 71.6408 35.8897 71.54C35.6923 71.5222 35.51 71.4271 35.3826 71.2753C35.2552 71.1235 35.193 70.9275 35.2097 70.73C35.2093 70.6289 35.23 70.5288 35.2704 70.4361C35.3108 70.3434 35.37 70.26 35.4443 70.1914C35.5185 70.1228 35.6063 70.0703 35.7019 70.0374C35.7975 70.0044 35.8989 69.9917 35.9997 70C36.8348 70.1227 37.6278 70.4461 38.3105 70.9425C38.9932 71.4389 39.5454 72.0934 39.9197 72.85C40.0069 73.0235 40.0244 73.2237 39.9686 73.4097C39.9128 73.5956 39.788 73.7532 39.6197 73.85C39.5139 73.929 39.3902 73.9805 39.2597 74Z" fill="#ED6A5E"/>
<path d="M11.3101 74C11.201 73.9883 11.0955 73.9542 11.0001 73.9C10.8318 73.8032 10.707 73.6456 10.6512 73.4597C10.5954 73.2737 10.6129 73.0735 10.7001 72.9C11.0592 72.1373 11.5997 71.4741 12.2743 70.9686C12.949 70.463 13.7372 70.1305 14.5701 70C14.7574 70.0029 14.9369 70.0758 15.0732 70.2043C15.2095 70.3329 15.2927 70.5078 15.3065 70.6947C15.3203 70.8816 15.2637 71.0668 15.1477 71.214C15.0318 71.3612 14.865 71.4596 14.6801 71.49C14.0994 71.6038 13.5538 71.8533 13.088 72.2183C12.6222 72.5833 12.2494 73.0533 12.0001 73.59C11.9348 73.7159 11.8356 73.8211 11.7136 73.8935C11.5917 73.966 11.4519 74.0029 11.3101 74Z" fill="#ED6A5E"/>
<path d="M25.3596 42.49C24.0767 42.4908 22.7959 42.5944 21.5296 42.7999L23.2896 43.7999C23.2782 43.8909 23.2615 43.981 23.2396 44.0699C23.9396 44.0099 24.6496 43.97 25.3596 43.97C29.7835 43.968 34.1087 45.2778 37.7883 47.7337C41.4679 50.1897 44.3367 53.6815 46.0319 57.7678C47.7272 61.854 48.1728 66.3512 47.3124 70.6906C46.452 75.0301 44.3242 79.017 41.1981 82.1473C38.072 85.2776 34.088 87.4107 29.7497 88.2769C25.4113 89.1432 20.9136 88.7036 16.8251 87.0138C12.7366 85.324 9.24089 82.46 6.78 78.7836C4.3191 75.1073 3.00351 70.7839 2.99956 66.36C2.99399 63.8542 3.41326 61.3656 4.23956 58.9999C3.82956 59.0699 3.42956 59.1499 3.00956 59.2099L2.92956 58.2099C1.19643 62.981 1.02935 68.1802 2.45258 73.0527C3.87581 77.9251 6.81524 82.217 10.844 85.3049C14.8727 88.3929 19.7809 90.1162 24.8558 90.2245C29.9307 90.3328 34.908 88.8205 39.0648 85.9072C43.2216 82.9939 46.3414 78.8314 47.9713 74.0241C49.6011 69.2168 49.656 64.0152 48.128 59.1746C46.6 54.334 43.5686 50.1065 39.4743 47.1061C35.3799 44.1058 30.4356 42.4888 25.3596 42.49Z" fill="#ED6A5E"/>
<path d="M2.32964 60.07L-0.00036428 31.58C-0.00680451 31.3827 0.0376514 31.1871 0.128724 31.012C0.219797 30.8368 0.35442 30.6881 0.519636 30.58C0.694566 30.4741 0.89515 30.4182 1.09964 30.4182C1.30412 30.4182 1.5047 30.4741 1.67964 30.58L24.0796 43.47V43.95C23.9996 44 22.4496 57.08 3.11964 60L2.32964 60.07ZM1.55964 32.18L3.68964 58.34C19.2696 55.74 21.9996 46.45 22.4596 44.21L1.55964 32.18Z" fill="#ED6A5E"/>
<path d="M2.53003 54.0801C2.40776 54.0791 2.28756 54.0485 2.17962 53.991C2.07169 53.9336 1.97921 53.8509 1.91003 53.7501C1.80876 53.5896 1.77305 53.3963 1.81027 53.2102C1.84749 53.0241 1.95481 52.8594 2.11003 52.7501C11.17 46.5501 12.11 37.8701 12.11 37.7501C12.1327 37.5529 12.2307 37.3721 12.3835 37.2454C12.5362 37.1187 12.7321 37.0559 12.93 37.0701C13.1275 37.0903 13.3089 37.188 13.4345 37.3417C13.5601 37.4954 13.6196 37.6926 13.6 37.8901C13.6 38.2701 12.6 47.3301 2.94003 53.8901C2.8269 53.9952 2.68335 54.0618 2.53003 54.0801Z" fill="#ED6A5E"/>
<path d="M66.6599 51.8001C66.4793 51.8066 66.3033 51.742 66.1699 51.6201C64.661 50.3293 62.7406 49.62 60.7549 49.62C58.7692 49.62 56.8488 50.3293 55.3399 51.6201C55.2657 51.686 55.1791 51.7362 55.0851 51.7679C54.9912 51.7996 54.8918 51.8121 54.7929 51.8046C54.6941 51.7971 54.5977 51.7699 54.5095 51.7245C54.4214 51.679 54.3433 51.6163 54.2799 51.5401C54.152 51.3881 54.0888 51.1919 54.1037 50.9938C54.1187 50.7957 54.2106 50.6113 54.3599 50.4801C56.1405 48.9569 58.4066 48.1199 60.7499 48.1199C63.0931 48.1199 65.3593 48.9569 67.1399 50.4801C67.2156 50.5436 67.2781 50.6215 67.3236 50.7093C67.3692 50.797 67.397 50.8929 67.4053 50.9914C67.4137 51.0899 67.4025 51.1891 67.3724 51.2833C67.3423 51.3775 67.2938 51.4647 67.2299 51.5401C67.1588 51.6215 67.0712 51.6868 66.9729 51.7316C66.8746 51.7764 66.7679 51.7998 66.6599 51.8001Z" fill="#BAD8DB"/>
<path d="M60.8701 8C60.6712 8 60.4804 7.92098 60.3398 7.78033C60.1991 7.63968 60.1201 7.44891 60.1201 7.25V0.75C60.1201 0.551088 60.1991 0.360322 60.3398 0.21967C60.4804 0.0790176 60.6712 0 60.8701 0C61.069 0 61.2598 0.0790176 61.4004 0.21967C61.5411 0.360322 61.6201 0.551088 61.6201 0.75V7.25C61.6175 7.44811 61.5377 7.63737 61.3976 7.77747C61.2575 7.91756 61.0682 7.99741 60.8701 8Z" fill="#BAD8DB"/>
<path d="M67.07 9.33996C66.9712 9.34219 66.873 9.32378 66.7818 9.2859C66.6905 9.24801 66.6081 9.1915 66.54 9.11996C66.4692 9.05102 66.413 8.9686 66.3746 8.87758C66.3362 8.78655 66.3164 8.68876 66.3164 8.58996C66.3164 8.49117 66.3362 8.39338 66.3746 8.30235C66.413 8.21133 66.4692 8.12891 66.54 8.05997L70.76 3.83996C70.9022 3.70748 71.0902 3.63536 71.2845 3.63879C71.4788 3.64222 71.6642 3.72093 71.8016 3.85834C71.939 3.99576 72.0177 4.18114 72.0211 4.37544C72.0246 4.56974 71.9525 4.75779 71.82 4.89996L67.6 9.11996C67.5307 9.19008 67.4482 9.24565 67.3572 9.28343C67.2662 9.32121 67.1685 9.34043 67.07 9.33996Z" fill="#BAD8DB"/>
<path d="M54.8398 9.33991C54.7411 9.34094 54.6433 9.32198 54.5522 9.28417C54.4612 9.24636 54.3787 9.19048 54.3098 9.11991L50.1998 4.99991C50.0768 4.8624 50.0088 4.68439 50.0088 4.49991C50.0088 4.31543 50.0768 4.13742 50.1998 3.99991C50.3433 3.86121 50.5352 3.78369 50.7348 3.78369C50.9344 3.78369 51.1262 3.86121 51.2698 3.99991L55.3698 8.09991C55.5102 8.24054 55.5891 8.43116 55.5891 8.62991C55.5891 8.82866 55.5102 9.01928 55.3698 9.15991C55.2235 9.28699 55.0332 9.35162 54.8398 9.33991Z" fill="#BAD8DB"/>
</svg>
